X:9558
T:Letterkenny Blacksmith
R:Reel
S:Fisher Street
H:
N:
D:Fisher Street: Out in the Night
Z:Adrian Scahill
M:4/4
L:1/8
K:G
G2BG AGFD|GABG EA,A,2|G2BG ABcd|edcA FDEF|\
G2BG AGFD|GABG EA,A,2|G,A,B,D EFGA|(3Bcd Ac BGG2:||\
(3Bcd gd (3Bcd gd|(3^cde ae (3cde ae|(3Bcd gd (3Bcd eg|fdcA BGGA|\
(3Bcd gd (3Bcd gd|(3^cde ae (3cde ad|(3efg fa gbag|fdcA BGG2:||


